X: 212
T:Untitled Quadrille. JaW.211
M:6/8
Q:120
S:James Winder Ms, Lancashire, 1835-41
R:Quadrille
O:England
A:Wyresdale,Lancashire
H:1/8
Z:vmp.Chris Partington, Aug 2004
K:C
G|cdc c2e|g2e g2e|cdc c2e|gfe d3|!
ded d2e|f2g abc'|gfe dcd|c2c c2||!
g|e2d c3z2z z2g|f2e d2z|z2z z2g|!
e2d c2g|f2e d2g|g^fa de=f|!
gag fed|c2c c2::A|ABA A2B|c2d e2f|!
e2f e2f|e2d c2B|ABA A2B|!
c2d e2f|e2f e2^d|"DC"e3|]
W:Funny number of bars
